assets/svg/23F0.svg

<svg xmlns="http://www.w3.org/2000/svg" viewBox="0 0 64 64" enable-background="new 0 0 64 64"><g fill="#c2986b"><path d="m6.128 61.66c-.215-.293.406-2.372.532-2.521 3.271-3.808 3.391-16.06 3.324-17.806-.164-4.03 1.972-8.106 3.774-7.225 1.74.85 3.104 9.23 3.439 10.907.827 4.101.503 9.01-.825 12.898-1.402 4.117-6.821 8.295-10.244 3.747"/><path d="m57.975 61.66c.214-.293-.406-2.372-.533-2.521-3.271-3.808-3.39-16.06-3.323-17.806.163-4.03-1.973-8.106-3.775-7.225-1.739.85-3.103 9.23-3.438 10.907-.827 4.101-.503 9.01.825 12.898 1.401 4.117 6.82 8.295 10.244 3.747"/></g><g fill="#fbb041"><path d="m2.421 17.334c2.16 2.161 7.245.573 11.367-3.55 4.12-4.12 5.708-9.203 3.548-11.365-2.155-2.153-10.814-4.139-14.936-.019-4.12 4.12-2.134 12.781.021 14.934"/><path d="m61.42 17.334c-2.159 2.161-7.244.573-11.366-3.55-4.12-4.12-5.708-9.203-3.549-11.365 2.156-2.153 10.814-4.139 14.936-.019 4.12 4.12 2.134 12.781-.021 14.934"/></g><path fill="#a7a8ac" d="m60.809 33.07c0 15.979-12.95 28.932-28.93 28.932s-28.931-12.952-28.931-28.932c0-15.976 12.95-27.1 28.93-27.1s28.931 11.123 28.931 27.1"/><path fill="#e7e6e6" d="m53.53 33.3c0 11.961-9.694 21.656-21.656 21.656s-21.656-9.695-21.656-21.656c0-11.958 9.695-20.283 21.656-20.283s21.656 8.325 21.656 20.283"/><g fill="#25333a"><path d="m34.555 35.13c0 1.756-1.395 3.176-3.117 3.176l0 0c-1.722 0-3.117-1.42-3.117-3.176v-14.926c0-1.751 1.395-3.171 3.117-3.171l0 0c1.723 0 3.117 1.42 3.117 3.171v14.926"/><path d="m31.625 38.31c-1.828 0-3.305-.968-3.305-2.161l0 0c0-1.19 1.477-2.157 3.305-2.157h15.557c1.827 0 3.308.967 3.308 2.157l0 0c0 1.193-1.48 2.161-3.308 2.161h-15.557"/></g></svg>

<?xml version="1.0" encoding="UTF-8" standalone="no"?>
<!-- Generator: Adobe Illustrator 16.0.0, SVG Export Plug-In . SVG Version: 6.00 Build 0)  -->

<svg
   xmlns:dc="http://purl.org/dc/elements/1.1/"
   xmlns:cc="http://creativecommons.org/ns#"
   xmlns:rdf="http://www.w3.org/1999/02/22-rdf-syntax-ns#"
   xmlns:svg="http://www.w3.org/2000/svg"
   xmlns="http://www.w3.org/2000/svg"
   xmlns:sodipodi="http://sodipodi.sourceforge.net/DTD/sodipodi-0.dtd"
   xmlns:inkscape="http://www.inkscape.org/namespaces/inkscape"
   version="1.1"
   id="Layer_1"
   x="0px"
   y="0px"
   width="64px"
   height="64px"
   viewBox="0 0 64 64"
   enable-background="new 0 0 64 64"
   xml:space="preserve"
   inkscape:version="0.48.5 r10040"
   sodipodi:docname="23F0.svg"
   inkscape:export-filename="D:\TESTINGEMOJI\SVGTEST\23F0.png"
   inkscape:export-xdpi="90"
   inkscape:export-ydpi="90"><metadata
   id="metadata4547"><rdf:RDF><cc:Work
       rdf:about=""><dc:format>image/svg+xml</dc:format><dc:type
         rdf:resource="http://purl.org/dc/dcmitype/StillImage" /><dc:title></dc:title></cc:Work></rdf:RDF></metadata><defs
   id="defs4545" /><sodipodi:namedview
   pagecolor="#ffffff"
   bordercolor="#666666"
   borderopacity="1"
   objecttolerance="10"
   gridtolerance="10"
   guidetolerance="10"
   inkscape:pageopacity="0"
   inkscape:pageshadow="2"
   inkscape:window-width="640"
   inkscape:window-height="480"
   id="namedview4543"
   showgrid="false"
   inkscape:zoom="3.6875"
   inkscape:cx="32"
   inkscape:cy="32"
   inkscape:window-x="306"
   inkscape:window-y="210"
   inkscape:window-maximized="0"
   inkscape:current-layer="Layer_1" />
<g
   id="g4525">
	<path
   fill="#C2986B"
   d="M6.128,61.661c-0.215-0.293,0.406-2.372,0.532-2.521c3.271-3.808,3.391-16.065,3.324-17.806   c-0.164-4.03,1.972-8.106,3.774-7.225c1.74,0.85,3.104,9.23,3.439,10.907c0.827,4.101,0.503,9.005-0.825,12.898   C14.97,62.031,9.551,66.209,6.128,61.661z"
   id="path4527" />
	<path
   fill="#C2986B"
   d="M57.975,61.661c0.214-0.293-0.406-2.372-0.533-2.521c-3.271-3.808-3.39-16.065-3.323-17.806   c0.163-4.03-1.973-8.106-3.775-7.225c-1.739,0.85-3.103,9.23-3.438,10.907c-0.827,4.101-0.503,9.005,0.825,12.898   C49.132,62.031,54.551,66.209,57.975,61.661z"
   id="path4529" />
	<path
   fill="#FBB041"
   d="M2.421,17.334c2.16,2.161,7.245,0.573,11.367-3.55c4.12-4.12,5.708-9.203,3.548-11.365   C15.181,0.266,6.522-1.72,2.4,2.4C-1.72,6.52,0.266,15.181,2.421,17.334z"
   id="path4531" />
	<path
   fill="#FBB041"
   d="M61.417,17.334c-2.159,2.161-7.244,0.573-11.366-3.55c-4.12-4.12-5.708-9.203-3.549-11.365   C48.658,0.266,57.316-1.72,61.438,2.4C65.558,6.52,63.572,15.181,61.417,17.334z"
   id="path4533" />
	<path
   fill="#A7A8AC"
   d="M60.809,33.072c0,15.979-12.95,28.932-28.93,28.932S2.948,49.052,2.948,33.072   c0-15.976,12.95-27.099,28.93-27.099S60.809,17.096,60.809,33.072z"
   id="path4535" />
	<path
   fill="#E7E6E6"
   d="M53.534,33.303c0,11.961-9.694,21.656-21.656,21.656s-21.656-9.695-21.656-21.656   c0-11.958,9.695-20.283,21.656-20.283S53.534,21.345,53.534,33.303z"
   id="path4537" />
	<path
   fill="#25333A"
   d="M34.555,35.132c0,1.756-1.395,3.176-3.117,3.176l0,0c-1.722,0-3.117-1.42-3.117-3.176V20.206   c0-1.751,1.395-3.171,3.117-3.171l0,0c1.723,0,3.117,1.42,3.117,3.171V35.132z"
   id="path4539" />
	<path
   fill="#25333A"
   d="M31.625,38.308c-1.828,0-3.305-0.968-3.305-2.161l0,0c0-1.19,1.477-2.157,3.305-2.157h15.557   c1.827,0,3.308,0.967,3.308,2.157l0,0c0,1.193-1.48,2.161-3.308,2.161H31.625z"
   id="path4541" />
</g>
</svg>
